local/share/icons/dracula-icons-main/scalable/mimetypes/unknown.svg

<?xml version="1.0" encoding="UTF-8"?>
<svg xmlns="http://www.w3.org/2000/svg" xmlns:xlink="http://www.w3.org/1999/xlink" width="64" height="64" viewBox="0 0 64 64">
<defs>
<filter id="filter-remove-color" x="0%" y="0%" width="100%" height="100%">
<feColorMatrix color-interpolation-filters="sRGB" values="0 0 0 0 1 0 0 0 0 1 0 0 0 0 1 0 0 0 1 0" />
</filter>
<mask id="mask-0">
<g filter="url(#filter-remove-color)">
<rect x="-6.4" y="-6.4" width="76.8" height="76.8" fill="rgb(0%, 0%, 0%)" fill-opacity="0.1"/>
</g>
</mask>
<linearGradient id="linear-pattern-0" gradientUnits="userSpaceOnUse" x1="49.570999" y1="52.714001" x2="51.714001" y2="54.856998" gradientTransform="matrix(0.617345, 0, 0, 0.617345, -18.167916, -19.050025)">
<stop offset="0" stop-color="rgb(0%, 0%, 0%)" stop-opacity="1"/>
<stop offset="1" stop-color="rgb(0%, 0%, 0%)" stop-opacity="0"/>
</linearGradient>
<clipPath id="clip-0">
<rect x="0" y="0" width="17" height="17"/>
</clipPath>
<g id="source-7312" clip-path="url(#clip-0)">
<path fill-rule="evenodd" fill="url(#linear-pattern-0)" d="M 14.816406 12.171875 L 11.113281 15.875 L 13.492188 15.875 C 14.226562 15.875 14.816406 15.285156 14.816406 14.550781 Z M 14.816406 12.171875 "/>
</g>
</defs>
<path fill-rule="nonzero" fill="rgb(95.686275%, 95.686275%, 95.686275%)" fill-opacity="1" d="M 3.441406 1.058594 L 13.492188 1.058594 C 14.222656 1.058594 14.816406 1.652344 14.816406 2.382812 L 14.816406 14.550781 C 14.816406 15.28125 14.222656 15.875 13.492188 15.875 L 3.441406 15.875 C 2.707031 15.875 2.117188 15.28125 2.117188 14.550781 L 2.117188 2.382812 C 2.117188 1.652344 2.707031 1.058594 3.441406 1.058594 Z M 3.441406 1.058594 "/>
<g mask="url(#mask-0)">
<use xlink:href="#source-7312"/>
</g>
<path fill-rule="nonzero" fill="rgb(60%, 60%, 60%)" fill-opacity="1" d="M 8.226562 3.703125 C 7.804688 3.703125 7.417969 3.753906 7.0625 3.847656 C 6.71875 3.945312 6.457031 4.046875 6.269531 4.152344 L 6.523438 4.867188 C 7.007812 4.605469 7.542969 4.472656 8.136719 4.472656 C 8.347656 4.472656 8.550781 4.488281 8.746094 4.523438 C 8.9375 4.558594 9.105469 4.625 9.246094 4.722656 C 9.398438 4.820312 9.515625 4.953125 9.605469 5.121094 C 9.691406 5.277344 9.738281 5.480469 9.738281 5.726562 C 9.738281 6 9.683594 6.25 9.578125 6.46875 C 9.472656 6.679688 9.339844 6.882812 9.179688 7.078125 C 9.023438 7.261719 8.851562 7.449219 8.664062 7.632812 C 8.480469 7.808594 8.308594 8 8.148438 8.203125 C 7.988281 8.40625 7.859375 8.625 7.753906 8.863281 C 7.644531 9.09375 7.59375 9.355469 7.59375 9.65625 C 7.59375 9.761719 7.597656 9.867188 7.605469 9.972656 C 7.617188 10.070312 7.628906 10.164062 7.644531 10.253906 L 8.335938 10.253906 C 8.324219 10.207031 8.320312 10.164062 8.320312 10.121094 L 8.320312 9.894531 C 8.320312 9.605469 8.378906 9.339844 8.492188 9.101562 C 8.609375 8.863281 8.753906 8.644531 8.929688 8.441406 C 9.105469 8.226562 9.292969 8.027344 9.484375 7.832031 C 9.6875 7.636719 9.878906 7.433594 10.054688 7.222656 C 10.230469 7.011719 10.375 6.78125 10.492188 6.535156 C 10.605469 6.289062 10.664062 6.003906 10.664062 5.6875 C 10.664062 5.460938 10.621094 5.226562 10.542969 4.988281 C 10.464844 4.75 10.332031 4.539062 10.144531 4.351562 C 9.960938 4.160156 9.710938 4.003906 9.390625 3.890625 C 9.082031 3.765625 8.695312 3.703125 8.226562 3.703125 Z M 8.054688 11.773438 C 7.828125 11.773438 7.644531 11.84375 7.515625 11.984375 C 7.390625 12.125 7.328125 12.296875 7.328125 12.5 C 7.328125 12.703125 7.390625 12.875 7.515625 13.015625 C 7.644531 13.160156 7.828125 13.230469 8.054688 13.230469 C 8.285156 13.230469 8.460938 13.160156 8.585938 13.015625 C 8.71875 12.875 8.785156 12.703125 8.785156 12.5 C 8.785156 12.296875 8.71875 12.125 8.585938 11.984375 C 8.460938 11.84375 8.285156 11.773438 8.054688 11.773438 Z M 8.054688 11.773438 "/>
</svg>

<svg width="64" height="64" version="1.1" viewBox="0 0 16.933 16.933" xmlns="http://www.w3.org/2000/svg">
 <defs>
  <linearGradient id="a" x1="49.571" x2="51.714" y1="52.714" y2="54.857" gradientTransform="matrix(2.3333,0,0,2.3333,-68.667,-72.001)" gradientUnits="userSpaceOnUse">
   <stop offset="0"/>
   <stop stop-opacity="0" offset="1"/>
  </linearGradient>
 </defs>
 <g transform="scale(.26458)">
  <rect x="8" y="4" width="48" height="56" ry="5" fill="#f4f4f4" style="paint-order:stroke fill markers"/>
  <path d="m56 46-14 14h9c2.77 0 5-2.23 5-5z" fill="url(#a)" fill-rule="evenodd" opacity=".1" stroke-width="8.8191" style="paint-order:stroke fill markers"/>
 </g>
 <path d="m8.2284 3.7041c-0.42332 0-0.81144 0.048441-1.1642 0.14545-0.34395 0.097012-0.60845 0.19845-0.79366 0.30428l0.25126 0.71436c0.48506-0.26458 1.023-0.39683 1.6139-0.39683 0.21166 0 0.41453 0.017627 0.60856 0.052903 0.19402 0.035277 0.36164 0.10146 0.50275 0.19847 0.14993 0.097011 0.26899 0.22926 0.35718 0.39683 0.08819 0.15875 0.1322 0.36162 0.1322 0.60856 0 0.2734-0.05288 0.52027-0.15871 0.74075-0.10583 0.21166-0.23808 0.41453-0.39683 0.60856-0.15875 0.18521-0.3308 0.37045-0.516 0.55565-0.1852 0.17638-0.35714 0.36595-0.51589 0.56879s-0.291 0.42334-0.39683 0.66146c-0.10583 0.2293-0.15882 0.49392-0.15882 0.79377 0 0.10583 0.0044 0.21158 0.01326 0.31742 0.0088 0.09701 0.02201 0.18969 0.03965 0.27788h0.68797c-0.0088-0.0441-0.01325-0.08822-0.01325-0.13231v-0.22487c0-0.29104 0.05731-0.55565 0.17196-0.79377s0.26021-0.45861 0.43659-0.66146c0.17638-0.21166 0.36163-0.41453 0.55565-0.60856 0.20284-0.19402 0.39241-0.39678 0.56879-0.60844 0.17639-0.21166 0.32194-0.44103 0.43659-0.68797s0.17196-0.52918 0.17196-0.84668c0-0.2293-0.03969-0.46299-0.11906-0.70111-0.079386-0.23812-0.21175-0.44974-0.39696-0.63495-0.1852-0.19402-0.43652-0.34834-0.75401-0.46299-0.30868-0.12347-0.69667-0.18522-1.1641-0.18522zm-0.17196 8.0696c-0.2293 0-0.41011 0.07062-0.5424 0.21173-0.12347 0.14111-0.18522 0.31304-0.18522 0.51589 0 0.20284 0.06175 0.37478 0.18522 0.51589 0.13229 0.14111 0.3131 0.21173 0.5424 0.21173s0.40567-0.07062 0.52914-0.21173c0.13229-0.14111 0.19836-0.31304 0.19836-0.51589 0-0.20284-0.06607-0.37478-0.19836-0.51589-0.12347-0.14111-0.29984-0.21173-0.52914-0.21173z" enable-background="new" fill="#999"/>
</svg>
